apps/extension/src/@talisman/theme/icons/brave.svg

<svg width="21" height="24" viewBox="0 0 21 24" fill="none" xmlns="http://www.w3.org/2000/svg">
<path fill-rule="evenodd" clip-rule="evenodd" d="M19.7266 5.7573L20.2888 4.37574C20.2888 4.37574 19.5733 3.6082 18.7045 2.73832C17.8357 1.86844 15.9959 2.38014 15.9959 2.38014L13.9006 0H10.2211H6.54147L4.44616 2.38014C4.44616 2.38014 2.60637 1.86844 1.73758 2.73832C0.868789 3.6082 0.153316 4.37574 0.153316 4.37574L0.715474 5.7573L0 7.80407C0 7.80407 2.10426 15.7842 2.35084 16.7587C2.83634 18.6775 3.16853 19.4195 4.54837 20.3917C5.92821 21.3639 8.43237 23.0525 8.84121 23.3083C9.25005 23.5642 9.7611 24 10.2211 24C10.681 24 11.192 23.5642 11.6009 23.3083C12.0097 23.0525 14.5139 21.3639 15.8937 20.3917C17.2736 19.4195 17.6058 18.6775 18.0913 16.7587C18.3378 15.7842 20.4421 7.80407 20.4421 7.80407L19.7266 5.7573Z" fill="url(#paint0_linear_5884_19596)"/>
<path fill-rule="evenodd" clip-rule="evenodd" d="M15.4078 3.888C15.4078 3.888 18.1029 7.15003 18.1029 7.84721C18.1029 8.54439 17.7639 8.7284 17.423 9.09083C17.0821 9.45326 15.5934 11.0361 15.4022 11.2394C15.211 11.4427 14.813 11.7509 15.0471 12.3056C15.2812 12.8603 15.6266 13.5662 15.2426 14.2822C14.8584 14.9981 14.2005 15.476 13.7789 15.397C13.3572 15.3179 12.3671 14.7998 12.0029 14.5632C11.6388 14.3265 10.4848 13.3735 10.4848 13.0089C10.4848 12.6443 11.6777 11.9897 11.8981 11.8409C12.1185 11.6922 13.1238 11.1165 13.1444 10.8906C13.1649 10.6645 13.1571 10.5983 12.8604 10.0399C12.5638 9.48151 12.0295 8.73638 12.1184 8.2406C12.2074 7.74488 13.069 7.48708 13.6839 7.25457C14.2987 7.02211 15.4825 6.58303 15.6304 6.51477C15.7783 6.44646 15.7401 6.38142 15.2921 6.3389C14.8441 6.29638 13.5728 6.12742 12.9997 6.28737C12.4266 6.44733 11.4474 6.69069 11.3681 6.81974C11.2887 6.94878 11.2188 6.95313 11.3002 7.39831C11.3817 7.84348 11.801 9.97959 11.8417 10.359C11.8824 10.7384 11.9621 10.9893 11.5535 11.0828C11.1448 11.1763 10.457 11.3387 10.2206 11.3387C9.98429 11.3387 9.29641 11.1763 8.88782 11.0828C8.47919 10.9893 8.55881 10.7384 8.59954 10.359C8.64027 9.97959 9.05959 7.84348 9.14105 7.39831C9.22246 6.95313 9.1525 6.94878 9.07323 6.81974C8.99392 6.69069 8.01469 6.44733 7.44155 6.28737C6.8684 6.12742 5.59716 6.29638 5.14917 6.3389C4.70118 6.38142 4.66295 6.44646 4.81085 6.51477C4.95875 6.58303 6.1426 7.02211 6.7574 7.25457C7.37225 7.48708 8.23393 7.74488 8.32285 8.2406C8.41178 8.73638 7.87747 9.48151 7.58086 10.0399C7.28419 10.5983 7.27632 10.6645 7.29692 10.8906C7.31746 11.1165 8.32275 11.6922 8.54317 11.8409C8.76359 11.9897 9.95649 12.6443 9.95649 13.0089C9.95649 13.3735 8.80248 14.3265 8.43835 14.5632C8.07423 14.7998 7.08406 15.3179 6.66245 15.397C6.24083 15.476 5.58285 14.9981 5.19874 14.2822C4.81468 13.5662 5.16005 12.8603 5.39412 12.3056C5.62823 11.7509 5.23027 11.4427 5.03904 11.2394C4.8479 11.0361 3.3591 9.45326 3.01823 9.09083C2.67736 8.7284 2.33838 8.54439 2.33838 7.84721C2.33838 7.15003 5.03347 3.888 5.03347 3.888C5.03347 3.888 7.30765 4.32293 7.61428 4.32293C7.92091 4.32293 8.58528 4.06709 9.19854 3.86241C9.81181 3.65773 10.2206 3.65625 10.2206 3.65625C10.2206 3.65625 10.6295 3.65773 11.2428 3.86241C11.856 4.06709 12.5204 4.32293 12.827 4.32293C13.1336 4.32293 15.4078 3.888 15.4078 3.888ZM13.3874 16.3659C13.5542 16.4705 13.4525 16.6677 13.3005 16.7752C13.1486 16.8828 11.1063 18.4662 10.9082 18.6412C10.7099 18.8162 10.4187 19.1053 10.2206 19.1053C10.0226 19.1053 9.73131 18.8162 9.53312 18.6412C9.33488 18.4662 7.29272 16.8828 7.14073 16.7752C6.98874 16.6677 6.88704 16.4705 7.05385 16.3659C7.22071 16.2614 7.74265 15.9975 8.46287 15.6243C9.183 15.2512 10.0806 14.934 10.2206 14.934C10.3607 14.934 11.2582 15.2512 11.9785 15.6243C12.6986 15.9975 13.2206 16.2614 13.3874 16.3659Z" fill="#FAFAFA"/>
<mask id="mask0_5884_19596" style="mask-type:alpha" maskUnits="userSpaceOnUse" x="1" y="0" width="18" height="5">
<path d="M15.9962 2.38014L13.9008 0H10.2213H6.54169L4.44637 2.38014C4.44637 2.38014 2.60658 1.86844 1.73779 2.73832C1.73779 2.73832 4.19085 2.5166 5.03408 3.88963C5.03408 3.88963 7.30827 4.32457 7.6149 4.32457C7.92153 4.32457 8.5859 4.06872 9.19916 3.86404C9.81242 3.65937 10.2213 3.65788 10.2213 3.65788C10.2213 3.65788 10.6301 3.65937 11.2434 3.86404C11.8566 4.06872 12.521 4.32457 12.8276 4.32457C13.1343 4.32457 15.4084 3.88963 15.4084 3.88963C16.2517 2.5166 18.7047 2.73832 18.7047 2.73832C17.8359 1.86844 15.9962 2.38014 15.9962 2.38014Z" fill="white"/>
</mask>
<g mask="url(#mask0_5884_19596)">
<path d="M15.9957 2.38014L13.9004 0H10.2208H6.5412L4.44588 2.38014C4.44588 2.38014 2.60609 1.86844 1.7373 2.73832C1.7373 2.73832 4.19036 2.5166 5.03359 3.88963C5.03359 3.88963 7.30778 4.32457 7.61441 4.32457C7.92104 4.32457 8.58541 4.06872 9.19867 3.86404C9.81193 3.65937 10.2208 3.65788 10.2208 3.65788C10.2208 3.65788 10.6296 3.65937 11.2429 3.86404C11.8561 4.06872 12.5205 4.32457 12.8271 4.32457C13.1338 4.32457 15.408 3.88963 15.408 3.88963C16.2512 2.5166 18.7042 2.73832 18.7042 2.73832C17.8355 1.86844 15.9957 2.38014 15.9957 2.38014Z" fill="url(#paint1_linear_5884_19596)"/>
</g>
<defs>
<linearGradient id="paint0_linear_5884_19596" x1="0" y1="12.1693" x2="20.4421" y2="12.1693" gradientUnits="userSpaceOnUse">
<stop stop-color="#FF5500"/>
<stop offset="0.409877" stop-color="#FF5500"/>
<stop offset="0.581981" stop-color="#FF2000"/>
<stop offset="1" stop-color="#FF2000"/>
</linearGradient>
<linearGradient id="paint1_linear_5884_19596" x1="2.10183" y1="2.19279" x2="18.7042" y2="2.19279" gradientUnits="userSpaceOnUse">
<stop stop-color="#FF452A"/>
<stop offset="1" stop-color="#FF2000"/>
</linearGradient>
</defs>
</svg>

<svg viewBox="0 0 21 24" fill="none" xmlns="http://www.w3.org/2000/svg">
    <path fill-rule="evenodd" clip-rule="evenodd" d="M19.727 5.757l.562-1.381s-.716-.768-1.585-1.638c-.868-.87-2.708-.358-2.708-.358L13.9 0H6.54L4.446 2.38s-1.84-.512-2.708.358C.868 3.608.153 4.376.153 4.376l.562 1.381L0 7.804s2.104 7.98 2.35 8.955c.486 1.918.819 2.66 2.198 3.633 1.38.972 3.884 2.66 4.293 2.916.41.256.92.692 1.38.692.46 0 .971-.436 1.38-.692.409-.256 2.913-1.944 4.293-2.916 1.38-.973 1.712-1.715 2.197-3.633.247-.975 2.351-8.955 2.351-8.955l-.715-2.047z" fill="url(#paint0_linear_5884_19596)"/>
    <path fill-rule="evenodd" clip-rule="evenodd" d="M15.408 3.888s2.695 3.262 2.695 3.96c0 .696-.34.88-.68 1.243l-2.02 2.148c-.192.204-.59.512-.356 1.067.234.554.58 1.26.196 1.976-.385.716-1.043 1.194-1.464 1.115-.422-.08-1.412-.597-1.776-.834-.364-.237-1.518-1.19-1.518-1.554 0-.365 1.193-1.02 1.413-1.168.22-.149 1.226-.724 1.246-.95.02-.226.013-.293-.284-.851-.296-.558-.83-1.304-.742-1.8.09-.495.951-.753 1.566-.985.615-.233 1.799-.672 1.946-.74.148-.069.11-.134-.338-.176-.448-.043-1.72-.212-2.292-.052-.573.16-1.553.404-1.632.533-.08.129-.15.133-.068.578.082.445.501 2.582.542 2.961.04.38.12.63-.289.724-.408.093-1.096.256-1.332.256-.237 0-.925-.163-1.333-.256-.409-.094-.33-.345-.288-.724.04-.38.46-2.516.541-2.96.081-.446.011-.45-.068-.58-.08-.128-1.058-.372-1.631-.532-.574-.16-1.845.01-2.293.052-.448.042-.486.107-.338.176.148.068 1.332.507 1.946.74.615.232 1.477.49 1.566.986.089.495-.446 1.24-.742 1.799-.297.558-.305.625-.284.85.02.226 1.026.802 1.246.95.22.15 1.413.804 1.413 1.169 0 .364-1.154 1.317-1.518 1.554-.364.237-1.354.755-1.776.834-.421.079-1.08-.399-1.463-1.115-.384-.716-.039-1.422.195-1.976.234-.555-.164-.863-.355-1.067l-2.02-2.148c-.342-.363-.68-.547-.68-1.244s2.694-3.959 2.694-3.959 2.275.435 2.581.435c.307 0 .971-.256 1.585-.46.613-.205 1.022-.207 1.022-.207s.409.002 1.022.206c.613.205 1.277.46 1.584.46.307 0 2.58-.434 2.58-.434zm-2.02 12.478c.166.105.065.302-.088.41a124.03 124.03 0 00-2.392 1.865c-.198.175-.49.464-.687.464-.198 0-.49-.289-.688-.464-.198-.175-2.24-1.758-2.392-1.866-.152-.107-.254-.304-.087-.41.167-.104.689-.367 1.409-.74.72-.374 1.618-.691 1.758-.691.14 0 1.037.317 1.758.69.72.373 1.242.637 1.408.742z" fill="#FAFAFA"/>
    <mask id="a" style="mask-type:alpha" maskUnits="userSpaceOnUse" x="1" y="0" width="18" height="5">
        <path d="M15.996 2.38L13.901 0H6.54L4.447 2.38s-1.84-.512-2.708.358c0 0 2.453-.221 3.296 1.152 0 0 2.274.435 2.58.435.308 0 .972-.256 1.585-.461.613-.205 1.022-.206 1.022-.206s.41.001 1.022.206c.614.205 1.278.46 1.585.46.306 0 2.58-.434 2.58-.434.844-1.373 3.297-1.152 3.297-1.152-.87-.87-2.709-.358-2.709-.358z" fill="#fff"/>
    </mask>
    <g mask="url(#a)">
        <path d="M15.996 2.38L13.9 0H6.541L4.446 2.38s-1.84-.512-2.709.358c0 0 2.453-.221 3.297 1.152 0 0 2.274.435 2.58.435.307 0 .971-.256 1.585-.461.613-.205 1.022-.206 1.022-.206s.409.001 1.022.206 1.277.46 1.584.46c.307 0 2.581-.434 2.581-.434.843-1.373 3.296-1.152 3.296-1.152-.869-.87-2.708-.358-2.708-.358z" fill="url(#paint1_linear_5884_19596)"/>
    </g>
    <defs>
        <linearGradient id="paint0_linear_5884_19596" x1="0" y1="12.169" x2="20.442" y2="12.169" gradientUnits="userSpaceOnUse">
            <stop stop-color="#F50"/>
            <stop offset=".41" stop-color="#F50"/>
            <stop offset=".582" stop-color="#FF2000"/>
            <stop offset="1" stop-color="#FF2000"/>
        </linearGradient>
        <linearGradient id="paint1_linear_5884_19596" x1="2.102" y1="2.193" x2="18.704" y2="2.193" gradientUnits="userSpaceOnUse">
            <stop stop-color="#FF452A"/>
            <stop offset="1" stop-color="#FF2000"/>
        </linearGradient>
    </defs>
</svg>
